logos/walkme.svg

<?xml version="1.0" encoding="UTF-8"?>
<svg width="512px" height="170px" viewBox="0 0 512 170" version="1.1" xmlns="http://www.w3.org/2000/svg" preserveAspectRatio="xMidYMid">
    <title>WalkMe</title>
    <g>
        <path d="M100.792447,39.0816742 L100.792447,80.5808596 C100.792447,90.3363289 98.2297146,98.0444594 93.1042491,103.705251 C87.9787836,109.366043 81.09927,112.196439 72.4657081,112.196439 C68.1697823,112.234119 63.9257049,111.256518 60.0791666,109.343263 C56.2424097,107.421214 52.9209791,104.609422 50.3920369,101.142519 C47.7607052,104.603208 44.3860481,107.429045 40.5169734,109.411603 C36.8926092,111.211294 32.9086657,112.162764 28.866615,112.197488 L28.3610778,112.196439 C19.721821,112.196439 12.8309174,109.348958 7.68836708,103.653997 C2.54581673,97.959035 -0.0169160056,90.2708368 0,80.589402 L0,39.0816742 L12.8052901,39.0816742 L12.8052901,82.8616917 C12.8052901,87.9359025 14.2290305,92.024885 17.0765113,95.1286391 C19.9239921,98.2323932 23.6912093,99.7814227 28.3781627,99.7757278 C32.6597026,99.9255192 36.796608,98.2153075 39.7225262,95.0859269 C42.6554315,91.9650879 44.1218841,87.8903428 44.1218841,82.8616917 L44.1218841,39.0816742 L56.8501233,39.0816742 L56.8501233,82.8616917 C56.8501233,87.9359025 58.2738638,92.024885 61.1213446,95.1286391 C63.9688254,98.2323932 67.7360425,99.7814227 72.4229959,99.7757278 C76.6903276,99.9241204 80.8104817,98.2055701 83.7075624,95.068842 C86.6006029,91.948003 88.0499706,87.8732579 88.0556656,82.8446068 L88.0556656,39.0816742 L100.792447,39.0816742 Z M163.365838,110.880903 L163.365838,75.0880691 C163.365838,67.5764147 161.241618,61.4885007 156.993176,56.8243271 C152.744735,52.1601536 147.232012,49.8309143 140.455008,49.8366092 C133.723563,49.8366092 128.196603,52.1430687 123.874127,56.7559876 C119.551651,61.3689065 117.39326,67.3087515 117.398955,74.5755225 C117.398955,81.9789727 119.61999,88.0554967 124.062061,92.8050947 C128.504131,97.5546927 134.164922,99.9351867 141.044436,99.9465766 C144.151195,99.9483111 147.233884,99.4017556 150.15068,98.332055 C153.345997,97.1270086 156.343318,95.451273 159.043362,93.3603535 L159.043362,107.190568 C156.138342,108.836975 153.023216,110.081301 149.783355,110.889445 C146.442136,111.703899 143.014157,112.108372 139.575136,112.094658 C136.123612,112.090116 132.692843,111.56009 129.401087,110.52212 C126.141781,109.523062 123.055911,108.027668 120.252131,106.088593 C115.240693,102.704993 111.162813,98.1129712 108.395221,92.7367552 C105.708369,87.3870909 104.304635,81.4880507 104.291521,75.5070353 L104.294849,74.9086778 C104.294849,64.1508953 107.683351,55.2696026 114.460355,48.2647998 C121.122495,41.3787225 129.559529,37.880079 139.771458,37.7688694 L140.301244,37.766138 C146.955547,37.7017826 153.495073,39.5008922 159.180041,42.9599431 C164.846815,46.3641941 169.422933,51.3167154 172.369573,57.2343644 C173.812594,60.0572572 174.834297,63.0763175 175.40214,66.1953865 C176.118796,71.0013499 176.424582,75.8596452 176.316181,80.7175387 L176.316181,110.87236 L163.365838,110.880903 Z M183.790818,6.07367658 L196.672821,6.07367658 L196.672821,110.880903 L183.790818,110.880903 L183.790818,6.07367658 Z M205.394655,110.880903 L205.394655,6.07367658 L218.276658,6.07367658 L218.276658,65.1361236 L223.98301,65.1361236 C227.130523,65.2700155 230.248445,64.4801421 232.952574,62.863834 C235.270424,61.3489742 237.770512,58.3733567 240.452839,53.9369816 L249.601795,39.0816742 L264.602324,39.0816742 L254.069492,56.1665591 C252.61019,58.6329476 250.943432,60.9699691 249.087532,63.1523606 L248.576702,63.7437055 C247.135723,65.4608326 245.400062,66.9072166 243.451236,68.0149267 C249.356911,69.1539191 253.713557,71.5828202 256.521173,75.3016302 C259.328789,79.0204401 260.72975,84.302517 260.724055,91.1478609 L260.724055,110.880903 L247.773712,110.880903 L247.773712,92.7282127 C247.773712,87.6027473 246.637567,83.7586482 244.356735,81.3496794 C242.075903,78.9407106 238.496619,77.7362262 233.576173,77.7362262 L218.276658,77.7362262 L218.276658,110.880903 L205.394655,110.880903 Z" fill="#000000"></path>
        <path d="M463.034719,0 L317.625264,0 C304.637384,0 292.181579,5.15999962 282.998562,14.3446186 C273.815545,23.5292375 268.659957,35.9859428 268.659957,48.9738225 L268.659957,96.2049868 C268.646381,109.200265 273.799202,121.667947 282.983448,130.861807 C292.167694,140.055666 304.629979,145.221529 317.625264,145.221522 L355.297435,145.221522 L389.791818,169.789586 L424.2862,145.221522 L463.034719,145.221522 C476.022599,145.221522 488.478404,140.061522 497.661421,130.876903 C506.844438,121.692284 512,109.235579 512,96.247699 L512,48.9738225 C512,21.9296629 490.078878,0.00471727885 463.034719,0" fill="#0094D4"></path>
        <path d="M302.018222,109.343263 L302.018222,67.7928232 C302.018222,58.037354 304.580954,50.3292234 309.70642,44.6684315 C314.831885,39.0076397 321.734179,36.1772438 330.4133,36.1772438 C334.678324,36.1362968 338.892848,37.1021251 342.714417,38.9962498 C346.55511,40.9454923 349.88702,43.7654761 352.444259,47.2311643 C355.046452,43.7659952 358.402912,40.9382729 362.259526,38.96208 C366.055364,37.0849466 370.240852,36.1307723 374.475218,36.1772438 C383.068915,36.1772438 389.937039,39.0247246 395.07959,44.7196862 C400.22214,50.4146478 402.784873,58.102846 402.767957,67.7842808 L402.767957,109.343263 L390.065176,109.343263 L390.065176,65.3838545 C390.065176,60.3608983 388.627198,56.3089331 385.751242,53.2279589 C379.489888,47.0906042 369.469091,47.0906042 363.207737,53.2279589 C360.326086,56.3032382 358.885261,60.3552034 358.885261,65.3838545 L358.885261,109.343263 L346.157022,109.343263 L346.157022,65.3838545 C346.157022,60.3608983 344.690569,56.3089331 341.757664,53.2279589 C338.805018,50.1468453 334.678081,48.4718309 330.4133,48.6235824 C325.732042,48.6235824 321.964825,50.1583746 319.111649,53.2279589 C316.258473,56.2975432 314.834733,60.3495084 314.840428,65.3838545 L314.840428,109.343263 L302.018222,109.343263 Z M478.641762,77.5312076 C476.830764,87.7821386 472.681984,95.8832215 466.195423,101.834456 C459.708862,107.785691 451.807102,110.761309 442.490145,110.761309 C439.314508,110.759246 436.153702,110.328227 433.093458,109.479942 C430.017142,108.635661 427.07314,107.367786 424.345997,105.712725 C408.53213,96.0037711 402.033882,76.2996402 408.969601,59.0880744 C410.804374,54.5865986 413.483631,50.4778246 416.862818,46.9834334 C423.596152,39.9747165 432.90787,36.0320562 442.626824,36.0747344 C449.557611,35.9620545 456.359959,37.9515328 462.137763,41.781086 C467.861199,45.6081002 472.508288,51.1806202 476.079029,58.4986459 L429.018713,84.5701802 L423.594262,74.8403383 L458.507225,55.355027 C456.496183,53.0648336 454.028795,51.2201121 451.263233,49.9391185 C448.504995,48.7039908 445.512144,48.0803589 442.490145,48.1110358 C436.268699,48.0129912 430.317245,50.6483676 426.20825,55.3208573 C421.78896,60.1217099 419.579314,66.0615549 419.579314,73.1403922 C419.579314,80.2192295 421.800349,86.1476846 426.24242,90.9257574 C430.242168,95.3313551 435.846805,97.9416694 441.79289,98.1682634 C447.738976,98.3948575 453.526017,96.2186585 457.849457,92.1302418 C461.972609,88.1095989 464.535342,82.5854861 465.537655,75.5579034 L478.641762,77.5312076 Z" fill="#FFFFFF"></path>
    </g>
</svg>

<svg preserveAspectRatio="xMidYMid" viewBox="0 0 512 170" xmlns="http://www.w3.org/2000/svg">
  <path d="M100.792 39.082V80.58c0 9.755-2.562 17.463-7.688 23.124-5.125 5.661-12.005 8.491-20.638 8.491-4.296.038-8.54-.94-12.387-2.853a26.909 26.909 0 0 1-9.687-8.2 29.044 29.044 0 0 1-9.875 8.269 26.712 26.712 0 0 1-11.65 2.785h-.506c-8.64 0-15.53-2.848-20.673-8.543C2.546 97.959-.017 90.271 0 80.589V39.082h12.805v43.78c0 5.074 1.424 9.163 4.272 12.267 2.847 3.103 6.614 4.652 11.301 4.647a14.82 14.82 0 0 0 11.345-4.69c2.932-3.12 4.399-7.196 4.399-12.224v-43.78H56.85v43.78c0 5.074 1.424 9.163 4.271 12.267 2.848 3.103 6.615 4.652 11.302 4.647a14.667 14.667 0 0 0 11.285-4.707c2.893-3.121 4.342-7.196 4.348-12.224V39.082h12.736Zm62.574 71.799V75.088c0-7.512-2.124-13.6-6.373-18.264-4.248-4.664-9.761-6.993-16.538-6.987-6.731 0-12.258 2.306-16.58 6.919-4.323 4.613-6.482 10.553-6.476 17.82 0 7.403 2.221 13.48 6.663 18.23 4.442 4.749 10.103 7.13 16.982 7.14 3.107.002 6.19-.544 9.107-1.614a34.28 34.28 0 0 0 8.892-4.972v13.83a36.886 36.886 0 0 1-9.26 3.7 42.39 42.39 0 0 1-10.208 1.205 33.98 33.98 0 0 1-10.174-1.573 33.172 33.172 0 0 1-9.149-4.433 35.98 35.98 0 0 1-11.857-13.352 38.578 38.578 0 0 1-4.103-17.23l.003-.598c0-10.758 3.388-19.64 10.165-26.644 6.662-6.886 15.1-10.385 25.311-10.496l.53-.003a35.656 35.656 0 0 1 18.879 5.194 34.69 34.69 0 0 1 13.19 14.274 32.461 32.461 0 0 1 3.032 8.961 85.527 85.527 0 0 1 .914 14.523v30.154l-12.95.009ZM183.79 6.074h12.882V110.88H183.79V6.074Zm21.604 104.807V6.074h12.882v59.062h5.706a16.145 16.145 0 0 0 8.97-2.272c2.317-1.515 4.818-4.49 7.5-8.927l9.149-14.855h15L254.07 56.167a50.4 50.4 0 0 1-4.981 6.985l-.511.592a18.853 18.853 0 0 1-5.126 4.27c5.906 1.14 10.263 3.569 13.07 7.288 2.808 3.718 4.209 9 4.203 15.846v19.733h-12.95V92.728c0-5.125-1.136-8.97-3.417-11.378-2.281-2.41-5.86-3.614-10.78-3.614h-15.3v33.145h-12.882Z"/>
  <path fill="#0094D4" d="M463.035 0h-145.41a48.965 48.965 0 0 0-48.965 48.974v47.231a48.965 48.965 0 0 0 48.965 49.017h37.672l34.495 24.568 34.494-24.568h38.749A48.965 48.965 0 0 0 512 96.248V48.974C512 21.93 490.079.004 463.035 0"/>
  <path fill="#FFF" d="M302.018 109.343v-41.55c0-9.756 2.563-17.464 7.688-23.125 5.126-5.66 12.028-8.49 20.707-8.49 4.265-.042 8.48.924 12.301 2.818a27.635 27.635 0 0 1 9.73 8.235 28.566 28.566 0 0 1 9.816-8.269 26.892 26.892 0 0 1 12.215-2.785c8.594 0 15.462 2.848 20.605 8.543 5.142 5.695 7.705 13.383 7.688 23.064v41.56h-12.703v-43.96c0-5.023-1.438-9.075-4.314-12.156-6.261-6.137-16.282-6.137-22.543 0-2.882 3.075-4.323 7.127-4.323 12.156v43.96h-12.728v-43.96c0-5.023-1.466-9.075-4.4-12.156a14.975 14.975 0 0 0-11.344-4.604c-4.681 0-8.448 1.534-11.301 4.604-2.854 3.07-4.277 7.122-4.272 12.156v43.96h-12.822Zm176.624-31.812c-1.811 10.251-5.96 18.352-12.447 24.303-6.486 5.952-14.388 8.927-23.705 8.927a35.263 35.263 0 0 1-9.397-1.281 34.417 34.417 0 0 1-8.747-3.767c-15.814-9.71-22.312-29.413-15.376-46.625a38.1 38.1 0 0 1 7.893-12.105 35.51 35.51 0 0 1 25.764-10.908 34.306 34.306 0 0 1 19.51 5.706c5.724 3.827 10.371 9.4 13.942 16.718l-47.06 26.071-5.425-9.73 34.913-19.485a21.877 21.877 0 0 0-7.244-5.416 20.946 20.946 0 0 0-8.773-1.828 21.237 21.237 0 0 0-16.282 7.21c-4.419 4.8-6.629 10.74-6.629 17.82 0 7.078 2.221 13.007 6.663 17.785a22.142 22.142 0 0 0 31.607 1.204c4.124-4.02 6.686-9.545 7.689-16.572l13.104 1.973Z"/>
</svg>
